icons/mz.svg

<svg xmlns="http://www.w3.org/2000/svg" width="20" height="15" fill="transparent" viewBox="0 0 20 15"><g clip-path="url(#a)"><mask id="b" width="20" height="15" x="0" y="0" maskUnits="userSpaceOnUse" style="mask-type:luminance"><path fill="#fff" d="M0 0h20v15H0z"/></mask><g mask="url(#b)"><path fill="#F7FCFF" fill-rule="evenodd" d="M0 0v15h20V0H0Z" clip-rule="evenodd"/><mask id="c" width="20" height="15" x="0" y="0" maskUnits="userSpaceOnUse" style="mask-type:luminance"><path fill="#fff" fill-rule="evenodd" d="M0 0v15h20V0H0Z" clip-rule="evenodd"/></mask><g mask="url(#c)"><path fill="#FECA00" fill-rule="evenodd" d="M0 0v5h20V0H0Z" clip-rule="evenodd"/><path fill="#093" fill-rule="evenodd" d="M0 10v5h20v-5H0Z" clip-rule="evenodd"/><path fill="#272727" stroke="#fff" stroke-width="1.25" d="M0 4.375h-.625v6.25h21.25v-6.25H0Z"/></g><path fill="#F50100" fill-rule="evenodd" d="M0 0v15l11.25-7.5L0 0Z" clip-rule="evenodd"/><mask id="d" width="12" height="15" x="0" y="0" maskUnits="userSpaceOnUse" style="mask-type:luminance"><path fill="#fff" fill-rule="evenodd" d="M0 0v15l11.25-7.5L0 0Z" clip-rule="evenodd"/></mask><g mask="url(#d)"><path fill="#FECA00" fill-rule="evenodd" d="m5.043 8.97-2.362 1.907L3.765 8.33 1.903 6.537H4.1l.902-2.162.958 2.162h2.193l-1.96 1.792.981 2.548-2.13-1.906Z" clip-rule="evenodd"/><path fill="#F7FCFF" fill-rule="evenodd" d="m3.848 7.49-.401 1.338s1.352-.014 1.515.123c.49-.305 1.497-.123 1.497-.123l-.536-1.432s-.68-.308-.961-.139c-.69-.156-1.114.233-1.114.233Z" clip-rule="evenodd"/><path fill="#000" d="M7.227 9.51a.313.313 0 0 1-.499.376l-2.612-3.47a.313.313 0 0 1 .499-.375l2.612 3.47Z"/><path stroke="#000" stroke-linecap="round" stroke-linejoin="round" stroke-width=".625" d="m4.359 6.15-.25-.3"/><path fill="#000" fill-rule="evenodd" d="m3.503 5.852-.755 1.21.377.653.864-1.284.155-.397-.155-.182h-.486Zm-.979 3.591.365.513 2.81-3.324.116.13.648-.61 1.035-1.125-1.035.846-.335-.093-.313.492H5.5L3.206 8.826l-.682.617Z" clip-rule="evenodd"/></g></g></g><defs><clipPath id="a"><rect width="20" height="15" fill="#fff" rx="2"/></clipPath></defs></svg>

<svg viewBox="0 0 20 15" fill="none" xmlns="http://www.w3.org/2000/svg"><path d="M0 0v15h20V0H0Z" fill="#f7fcff"/><path d="M0 0v5h20V0H0Z" fill="#feca00"/><path d="M0 10v5h20v-5H0Z" fill="#093"/><path d="M0 4.38h-.63v6.25h21.26V4.37H0Z" fill="#272727" stroke="#fff" stroke-width="1.25"/><path d="M0 0v15l11.25-7.5L0 0Z" fill="#f50100"/><path d="m5.04 8.97-2.36 1.9 1.08-2.54-1.86-1.8h2.2L5 4.38l.96 2.17h2.2L6.18 8.33l.98 2.55-2.13-1.9Z" fill="#feca00"/><path d="m3.85 7.49-.4 1.34s1.35-.02 1.51.12c.5-.3 1.5-.12 1.5-.12L5.92 7.4s-.68-.31-.96-.14c-.69-.16-1.11.23-1.11.23Z" fill="#f7fcff"/><path d="M7.23 9.51a.31.31 0 0 1-.5.38L4.12 6.42a.31.31 0 1 1 .5-.38l2.6 3.47Z" fill="#000"/><path d="m4.36 6.15-.25-.3" stroke="#000" stroke-width=".63" stroke-linecap="round" stroke-linejoin="round"/><path d="m3.5 5.85-.75 1.21.38.66.86-1.29.15-.4L4 5.85h-.5Zm-.98 3.59.37.52 2.8-3.33.12.13.65-.6L7.5 5.02l-1.04.84-.33-.09-.32.5h-.3L3.2 8.82l-.69.61Z" fill="#000"/></svg>
